X:22
T:Derri\'ere Les Carreaux
R:Scottish
O:France
Z:Transcrit et/ou corrig par Michel BELLON - 2005-09-11
Z:Pour toute observation mailto:galouvielle@free.fr
M:2/4
L:1/16
C:Fr\'ed\'eric Paris
K:Dm
V:1
A2A2 A3G|FGAB G4|E2G2 FAFD|1,3 EGFE FEFG:|2,4 EGFE D4:|
|:A2A2 dcde|c2=BA G4|A2A2 DEFA|1,3 G2FE FEFG:|2,4 G2FE D4:|
V:2
x8 | x8 | x8 | x8 :| x8 :: x8 | x8 | x8 | x8 :| x8 :|
%%footer $D   Galouvielle-MBe 2006 \nScottish (--)
